X:1013
M:C
L:1/8
Q:1/4=120
K:D
g|fe`d>e d>efg |a>da>f e/e/e eg|fe`d>e d>efe |d<BA>F D/D/D Dg|
  f>ed>e d>ef>g|a>da>f e/e/e eg|f<ae>f d<eB>d|A>Fd>F D/D/D D|]

